img/pay1.svg

<svg width="33" height="14" viewBox="0 0 33 14" fill="none" xmlns="http://www.w3.org/2000/svg">
<path d="M6.07753 1.76604C5.69766 2.21555 5.08986 2.57009 4.48207 2.51944C4.4061 1.91165 4.70366 1.26588 5.05188 0.867012C5.43175 0.404838 6.09652 0.0756176 6.63467 0.050293C6.69798 0.683409 6.45106 1.30386 6.07753 1.76604ZM6.62834 2.63974C5.7483 2.58909 4.9949 3.1399 4.57704 3.1399C4.15285 3.1399 3.51341 2.66506 2.81698 2.67772C1.91162 2.69039 1.06958 3.20321 0.607403 4.01993C-0.34227 5.65337 0.360488 8.07187 1.27851 9.40141C1.72802 10.0599 2.26617 10.7816 2.97526 10.7563C3.64636 10.731 3.91227 10.3194 4.72266 10.3194C5.53938 10.3194 5.77363 10.7563 6.48272 10.7436C7.21713 10.731 7.67931 10.0852 8.12882 9.42674C8.64164 8.67966 8.85057 7.95158 8.86324 7.91359C8.85057 7.90093 7.44506 7.36278 7.43239 5.742C7.41973 4.38714 8.54035 3.74136 8.59099 3.70337C7.95788 2.76636 6.97022 2.66506 6.62834 2.63974ZM11.7123 0.803701V10.674H13.2444V7.29947H15.3653C17.3027 7.29947 18.6639 5.96993 18.6639 4.04525C18.6639 2.12058 17.328 0.803701 15.416 0.803701H11.7123ZM13.2444 2.09526H15.0108C16.3403 2.09526 17.1001 2.80435 17.1001 4.05159C17.1001 5.29882 16.3403 6.01424 15.0045 6.01424H13.2444V2.09526ZM21.4622 10.75C22.4246 10.75 23.3173 10.2625 23.7225 9.49005H23.7541V10.674H25.1723V5.761C25.1723 4.33649 24.0327 3.41847 22.279 3.41847C20.6519 3.41847 19.4489 4.34915 19.4046 5.62804H20.7848C20.8988 5.02025 21.4622 4.62139 22.2346 4.62139C23.1717 4.62139 23.6971 5.05824 23.6971 5.8623V6.40678L21.7851 6.52074C20.0061 6.62837 19.0437 7.35645 19.0437 8.62268C19.0437 9.90158 20.0377 10.75 21.4622 10.75ZM21.8738 9.57869C21.057 9.57869 20.5379 9.18616 20.5379 8.58469C20.5379 7.96424 21.0381 7.60337 21.9941 7.54638L23.6971 7.43876V7.9959C23.6971 8.92025 22.9121 9.57869 21.8738 9.57869ZM27.0653 13.3584C28.5595 13.3584 29.2622 12.7886 29.8764 11.0602L32.5671 3.51344H31.0096L29.2053 9.34443H29.1736L27.3692 3.51344H25.7674L28.3632 10.6993L28.2239 11.1362C27.9897 11.8769 27.6098 12.1618 26.9324 12.1618C26.8121 12.1618 26.5778 12.1491 26.4829 12.1365V13.3204C26.5715 13.3457 26.9514 13.3584 27.0653 13.3584Z" fill="white"/>
</svg>

<svg xmlns="http://www.w3.org/2000/svg" width="33" height="14" fill="none"><path fill="#fff" d="M6.078 1.766c-.38.45-.988.804-1.596.753-.076-.607.222-1.253.57-1.652C5.432.405 6.097.076 6.635.05c.063.633-.184 1.254-.557 1.716m.55.874c-.88-.05-1.633.5-2.051.5-.424 0-1.064-.475-1.76-.462-.905.012-1.747.525-2.21 1.342C-.343 5.653.36 8.072 1.28 9.4c.449.659.987 1.38 1.696 1.355.671-.025.937-.437 1.748-.437.816 0 1.05.437 1.76.425.734-.013 1.196-.659 1.646-1.317.513-.747.722-1.475.734-1.513-.012-.013-1.418-.551-1.43-2.172-.013-1.355 1.107-2 1.158-2.039-.633-.937-1.62-1.038-1.963-1.063M11.712.804v9.87h1.532V7.299h2.121c1.938 0 3.299-1.33 3.299-3.254S17.328.804 15.416.804zm1.532 1.291h1.767c1.33 0 2.09.71 2.09 1.957s-.76 1.962-2.096 1.962h-1.76zm8.218 8.655c.963 0 1.855-.488 2.26-1.26h.032v1.184h1.418V5.761c0-1.425-1.14-2.343-2.893-2.343-1.627 0-2.83.931-2.874 2.21h1.38c.114-.608.677-1.007 1.45-1.007.937 0 1.462.437 1.462 1.241v.545l-1.912.114c-1.779.107-2.741.835-2.741 2.102 0 1.279.994 2.127 2.418 2.127m.412-1.171c-.817 0-1.336-.393-1.336-.994 0-.62.5-.982 1.456-1.039l1.703-.107v.557c0 .924-.785 1.583-1.823 1.583m5.191 3.78c1.494 0 2.197-.57 2.811-2.299l2.691-7.547H31.01l-1.805 5.831h-.031l-1.805-5.83h-1.602l2.596 7.185-.14.437c-.233.74-.613 1.026-1.29 1.026-.12 0-.355-.013-.45-.026v1.184c.088.026.468.038.582.038"/></svg>
